!!!OTL: "Jakobs Freierei. " MESOPOTAMIA HEISSET DAS LAND
!!!ARE: Europa, Mitteleuropa, Deutschland, Niederrhein
!!!SCT: Z1102
!!!YEM: Copyright 1995, estate of Helmut Schaffrath.
**kern
*ICvox
*Ivox
*M3/4
*k[b-e-]
*B-:
=1
{4b-
4a
4b-
=2
4cc
4b-
4cc
=3
4ee-
4dd
4ee-
=4
2cc}
{4ff
=5
4ee-
4dd
4cc
=6
4.b-
8f
4b-
=7
4cc
4b-
4a
=8
2b-}
{8f
8a
=9
4cc
4cc
4cc
=10
4cc
4cc
8cc
8cc
=11
4ff
4cc
4a
=12
2f}
{4g
=13
4a
4b-
4g
=14
4a
4b-
4g
=15
4f
4f
8c
8c
=16
2.f}
=17
{4b-
4b-
4b-
=18
4e-
4e-
4e-
=19
4e-
4ee-
4dd
=20
2cc}
{4ff
=21
4ee-
4dd
4cc
=22
4b-
4b-
8dd
8cc
=23
4b-
4b-
4a
=24
2b-
4r}
==
!!!AGN: Romanze, Ballade
!!!ONB: ESAC (Essen Associative Code) Database: ZUCCAL
!!!AMT: simple triple
!!!AIN: vox
!!!EED: Helmut Schaffrath
!!!EEV: 1.0
*-
